src/containers/site/SiteSafetyScreen/asset/safety_feature_3.svg

<svg width="60" height="71" viewBox="0 0 60 71" fill="none" xmlns="http://www.w3.org/2000/svg">
<path fill-rule="evenodd" clip-rule="evenodd" d="M1.804 71H53.2181C54.2103 71 55.0221 70.1849 54.9995 69.1888V14.037C54.9995 13.5389 54.8191 13.0861 54.4809 12.7465L42.3039 0.520727C41.9656 0.181123 41.4921 0 41.0185 0H1.804C0.811801 0 0 0.815051 0 1.81122V69.1888C0 70.1849 0.811801 71 1.804 71ZM51.3914 67.3777H3.60791V3.62256H40.2743L51.3914 14.7842V67.3777Z" fill="url(#paint0_linear)"/>
<path d="M33.1697 20H12.8303C11.8236 20 11 19.1 11 18C11 16.9 11.8236 16 12.8303 16H33.1697C34.1764 16 35 16.9 35 18C35 19.1 34.1764 20 33.1697 20Z" fill="url(#paint1_linear)"/>
<path d="M36.4495 30H12.5505C11.7088 30 11 29.1 11 28C11 26.9 11.6866 26 12.5505 26H36.4495C37.2912 26 38 26.9 38 28C38 29.1 37.2912 30 36.4495 30Z" fill="url(#paint2_linear)"/>
<path d="M35.3211 41H12.6789C11.7487 41 11 40.1 11 39C11 37.9 11.7487 37 12.6789 37H35.3211C36.2513 37 37 37.9 37 39C37 40.1 36.274 41 35.3211 41Z" fill="url(#paint3_linear)"/>
<path d="M40.1441 52H12.833C11.8248 52 11 51.1 11 50C11 48.9 11.8248 48 12.833 48H40.167C41.1752 48 42 48.9 42 50C42 51.1 41.1752 52 40.1441 52Z" fill="url(#paint4_linear)"/>
<path fill-rule="evenodd" clip-rule="evenodd" d="M57.025 37.4645H55.7305V32.7575C55.7305 26.8908 51.0068 22.1156 45.1703 22.0019C39.1522 21.8882 34.2468 26.9363 34.2468 32.9394V37.4645H32.9523C31.3172 37.4645 30 38.7834 30 40.4206V59.0439C30 60.6811 31.3172 62 32.9523 62H57.0477C58.6828 62 60 60.6811 60 59.0439V40.4206C59.9773 38.7834 58.6601 37.4645 57.025 37.4645ZM38.1528 32.7574C38.1528 28.9145 41.3322 25.822 45.1702 25.9357C48.872 26.0494 51.7789 29.1873 51.7789 32.8938V37.4644H38.1528V32.7574ZM46.8281 55.4285V50.3804C47.7365 49.7665 48.3269 48.7205 48.3042 47.5608C48.3042 45.6734 46.7827 44.1499 44.8977 44.1499C43.0128 44.1499 41.4912 45.6734 41.4912 47.5608C41.4912 48.7432 42.0817 49.7665 42.9901 50.3804V55.4285H46.8281Z" fill="url(#paint5_linear)"/>
<defs>
<linearGradient id="paint0_linear" x1="0.00428451" y1="71.0047" x2="55.0116" y2="71.0047" gradientUnits="userSpaceOnUse">
<stop stop-color="#5C8BFC"/>
<stop offset="1" stop-color="#84B0FF"/>
</linearGradient>
<linearGradient id="paint1_linear" x1="11.0168" y1="20.0018" x2="35.0059" y2="20.0018" gradientUnits="userSpaceOnUse">
<stop stop-color="#5C8BFC"/>
<stop offset="1" stop-color="#84B0FF"/>
</linearGradient>
<linearGradient id="paint2_linear" x1="11.0162" y1="30.0083" x2="37.9898" y2="30.0083" gradientUnits="userSpaceOnUse">
<stop stop-color="#5C8BFC"/>
<stop offset="1" stop-color="#84B0FF"/>
</linearGradient>
<linearGradient id="paint3_linear" x1="10.9938" y1="40.995" x2="37.0225" y2="40.995" gradientUnits="userSpaceOnUse">
<stop stop-color="#5C8BFC"/>
<stop offset="1" stop-color="#84B0FF"/>
</linearGradient>
<linearGradient id="paint4_linear" x1="10.9938" y1="51.9997" x2="41.9853" y2="51.9997" gradientUnits="userSpaceOnUse">
<stop stop-color="#5C8BFC"/>
<stop offset="1" stop-color="#84B0FF"/>
</linearGradient>
<linearGradient id="paint5_linear" x1="29.9745" y1="62.0079" x2="59.9793" y2="62.0079" gradientUnits="userSpaceOnUse">
<stop stop-color="#FFB300"/>
<stop offset="1" stop-color="#FF8E37"/>
</linearGradient>
</defs>
</svg>

<svg width="60" height="71" fill="none" xmlns="http://www.w3.org/2000/svg"><path fill-rule="evenodd" clip-rule="evenodd" d="M1.804 71h51.414A1.78 1.78 0 0055 69.189V14.037c0-.498-.18-.95-.518-1.29L42.304.52A1.822 1.822 0 0041.019 0H1.803C.812 0 0 .815 0 1.811V69.19C0 70.185.812 71 1.804 71zm49.587-3.622H3.608V3.623h36.666l11.117 11.161v52.594z" fill="url(#paint0_linear)"/><path d="M33.17 20H12.83c-1.006 0-1.83-.9-1.83-2s.824-2 1.83-2h20.34c1.006 0 1.83.9 1.83 2s-.824 2-1.83 2z" fill="url(#paint1_linear)"/><path d="M36.45 30h-23.9c-.841 0-1.55-.9-1.55-2s.687-2 1.55-2h23.9c.841 0 1.55.9 1.55 2s-.709 2-1.55 2z" fill="url(#paint2_linear)"/><path d="M35.321 41H12.68c-.93 0-1.679-.9-1.679-2s.749-2 1.679-2H35.32c.93 0 1.679.9 1.679 2s-.726 2-1.679 2z" fill="url(#paint3_linear)"/><path d="M40.144 52H12.833C11.825 52 11 51.1 11 50s.825-2 1.833-2h27.334c1.008 0 1.833.9 1.833 2s-.825 2-1.856 2z" fill="url(#paint4_linear)"/><path fill-rule="evenodd" clip-rule="evenodd" d="M57.025 37.465h-1.294v-4.708c0-5.866-4.724-10.641-10.56-10.755-6.019-.114-10.924 4.934-10.924 10.937v4.526h-1.295A2.948 2.948 0 0030 40.42v18.623A2.948 2.948 0 0032.952 62h24.096A2.948 2.948 0 0060 59.044V40.42a2.982 2.982 0 00-2.975-2.956zm-18.872-4.708c0-3.842 3.18-6.935 7.017-6.821 3.702.113 6.609 3.251 6.609 6.958v4.57H38.153v-4.707zm8.675 22.672V50.38a3.334 3.334 0 001.476-2.82 3.404 3.404 0 00-3.406-3.41 3.404 3.404 0 00-3.407 3.41 3.38 3.38 0 001.5 2.82v5.048h3.837z" fill="url(#paint5_linear)"/><defs><linearGradient id="paint0_linear" x1=".004" y1="71.005" x2="55.012" y2="71.005" gradientUnits="userSpaceOnUse"><stop stop-color="#5C8BFC"/><stop offset="1" stop-color="#84B0FF"/></linearGradient><linearGradient id="paint1_linear" x1="11.017" y1="20.002" x2="35.006" y2="20.002" gradientUnits="userSpaceOnUse"><stop stop-color="#5C8BFC"/><stop offset="1" stop-color="#84B0FF"/></linearGradient><linearGradient id="paint2_linear" x1="11.016" y1="30.008" x2="37.99" y2="30.008" gradientUnits="userSpaceOnUse"><stop stop-color="#5C8BFC"/><stop offset="1" stop-color="#84B0FF"/></linearGradient><linearGradient id="paint3_linear" x1="10.994" y1="40.995" x2="37.023" y2="40.995" gradientUnits="userSpaceOnUse"><stop stop-color="#5C8BFC"/><stop offset="1" stop-color="#84B0FF"/></linearGradient><linearGradient id="paint4_linear" x1="10.994" y1="52" x2="41.985" y2="52" gradientUnits="userSpaceOnUse"><stop stop-color="#5C8BFC"/><stop offset="1" stop-color="#84B0FF"/></linearGradient><linearGradient id="paint5_linear" x1="29.974" y1="62.008" x2="59.979" y2="62.008" gradientUnits="userSpaceOnUse"><stop stop-color="#FFB300"/><stop offset="1" stop-color="#FF8E37"/></linearGradient></defs></svg>
